svgs/solid/turtle.svg

<svg xmlns="http://www.w3.org/2000/svg" viewBox="0 0 576 512"><!--! Font Awesome Pro 6.2.0 by @fontawesome - https://fontawesome.com License - https://fontawesome.com/license (Commercial License) Copyright 2022 Fonticons, Inc. --><path d="M384 249.2c0 21.4-17.4 38.8-38.8 38.8H70.8C49.4 288 32 270.6 32 249.2V208c0-97.2 78.8-176 176-176s176 78.8 176 176v41.2zM480 288c-2 0-4-.1-5.9-.3c-16.3 53.3-64.3 92.7-122.1 96V440c0 22.1-17.9 40-40 40H264c-22.1 0-40-17.9-40-40V384H192v56c0 22.1-17.9 40-40 40H104c-22.1 0-40-17.9-40-40V384H32c-17.7 0-32-14.3-32-32s14.3-32 32-32h72 48H264h48 32c39.8 0 72-32.2 72-72V224 192 176c0-35.3 28.7-64 64-64c53 0 96 43 96 96v16c0 35.3-28.7 64-64 64H480zm16-64c8.8 0 16-7.2 16-16s-7.2-16-16-16s-16 7.2-16 16s7.2 16 16 16z"/></svg>

<svg xmlns="http://www.w3.org/2000/svg" viewBox="0 0 576 512"><!--! Font Awesome Pro 6.1.2 by @fontawesome - https://fontawesome.com License - https://fontawesome.com/license (Commercial License) Copyright 2022 Fonticons, Inc. --><path d="M345.2 288H70.79C49.37 288 32 270.6 32 249.2V208C32 110.8 110.8 32 208 32C305.2 32 384 110.8 384 208V249.2C384 270.6 366.6 288 345.2 288zM480 288C478 288 476 287.9 474.1 287.7C457.9 341 409.8 380.4 352 383.8V440C352 462.1 334.1 480 312 480H264C241.9 480 224 462.1 224 440V384H192V440C192 462.1 174.1 480 152 480H104C81.91 480 64 462.1 64 440V384H32C14.33 384 0 369.7 0 352C0 334.3 14.33 320 32 320H344C383.8 320 416 287.8 416 248V176C416 140.7 444.7 112 480 112C533 112 576 154.1 576 208V224C576 259.3 547.3 288 512 288H480zM496 224C504.8 224 512 216.8 512 208C512 199.2 504.8 192 496 192C487.2 192 480 199.2 480 208C480 216.8 487.2 224 496 224z"/></svg>
